tools/download-figma-icons/icons/outlined-large/wallbox-solar.svg

<svg xmlns="http://www.w3.org/2000/svg" width="64" height="64" fill="none" viewBox="0 0 64 64"><path fill="currentColor" fill-rule="evenodd" d="m59.99 1.33 4 36c.05.43-.09.85-.37 1.17-.29.32-.69.5-1.12.5H38v20c0 2.76-2.24 5-5 5H5c-2.76 0-5-2.24-5-5V31c0-2.76 2.24-5 5-5h22.37l2.64-24.66C30.09.58 30.73 0 31.5 0h27c.76 0 1.41.57 1.49 1.33m-.83 22.75c.12 0 .23.01.34.04L58.49 15h-7.05l.3 9.08zM51.34 12h6.81l-1-9h-6.11zm-9.66 0h6.66l-.3-9h-6.09zm-3 0 .27-9h-6.12l-.96 9zm-5.69 49c1.1 0 2-.9 2-2H35V31c0-1.1-.9-2-2-2H5c-1.1 0-2 .9-2 2v28c0 1.1.9 2 2 2zm-2.62-35h2.62l-.01-.01c2.76 0 5 2.24 5 5v5h11.14l-.29-8.92h-3.34c-.83 0-1.5-.67-1.5-1.5s.67-1.5 1.5-1.5h3.24l-.3-9.08h-6.84l-.31 10.57c-.03.82-.69 1.46-1.5 1.46h-.04c-.83-.02-1.48-.71-1.46-1.54L38.59 15h-7.04zm21.47 1.08.29 8.92h8.69l-1.01-9.07c-.2.09-.42.15-.65.15zM24.25 39.12s1.09 4.59 5.25 5.88c2.02.73 3.5 2.41 3.5 4.71 0 2.92-2.35 5.29-5.25 5.29-1.84 0-3.47-.96-4.4-2.41q-.328-.543-.602-1.013c-1.338-2.28-1.937-3.303-4.918-3.637-2.116-.232-3.032-.981-3.948-1.73-1.1-.9-2.2-1.8-5.382-1.8-3.5 0-3.5-2.35-3.5-2.35 0-2.35 1.17-3.53 3.5-3.53q.169 0 .363.005c1.225.023 3.194.06 5.057-1.685a6.4 6.4 0 0 1 4.5-1.85c2.77 0 4.93 1.64 5.83 4.12M15.5 41.5c0 1.66 1.34 3 3 3s3-1.34 3-3-1.34-3-3-3-3 1.34-3 3M26 49.75c0 .97.78 1.75 1.75 1.75s1.75-.78 1.75-1.75S28.72 48 27.75 48 26 48.78 26 49.75" clip-rule="evenodd"/></svg>

<svg width="64" height="64" viewBox="0 0 64 64" fill="none" xmlns="http://www.w3.org/2000/svg">
<path fill-rule="evenodd" clip-rule="evenodd" d="M59.99 1.33L63.99 37.33C64.04 37.76 63.9 38.18 63.62 38.5C63.33 38.82 62.93 39 62.5 39H38V59C38 61.76 35.76 64 33 64H5C2.24 64 0 61.76 0 59V31C0 28.24 2.24 26 5 26H27.37L30.01 1.34C30.09 0.58 30.73 0 31.5 0H58.5C59.26 0 59.91 0.57 59.99 1.33ZM59.16 24.08C59.28 24.08 59.39 24.09 59.5 24.12L58.49 15H51.44L51.74 24.08H59.16ZM51.34 12H58.15L57.15 3H51.04L51.34 12ZM41.68 12H48.34L48.04 3H41.95L41.68 12ZM38.68 12L38.95 3H38.94H32.83L31.87 12H38.68ZM32.99 61C34.09 61 34.99 60.1 34.99 59H35V31C35 29.9 34.1 29 33 29H5C3.9 29 3 29.9 3 31V59C3 60.1 3.9 61 5 61H32.99ZM30.37 26H32.99L32.98 25.99C35.74 25.99 37.98 28.23 37.98 30.99V35.99H49.12L48.83 27.07H45.49C44.66 27.07 43.99 26.4 43.99 25.57C43.99 24.74 44.66 24.07 45.49 24.07H48.73L48.43 14.99H41.59L41.28 25.56C41.25 26.38 40.59 27.02 39.78 27.02H39.74C38.91 27 38.26 26.31 38.28 25.48L38.59 15H31.55L30.37 26ZM51.84 27.08L52.13 36H60.82L59.81 26.93C59.61 27.02 59.39 27.08 59.16 27.08H51.84ZM24.25 39.12C24.25 39.12 25.34 43.71 29.5 45C31.52 45.73 33 47.41 33 49.71C33 52.63 30.65 55 27.75 55C25.91 55 24.28 54.04 23.35 52.59C23.1301 52.2276 22.9323 51.8904 22.7484 51.577C21.4102 49.2962 20.8105 48.2741 17.83 47.94C15.7135 47.7084 14.7976 46.959 13.8821 46.2099C12.7818 45.3097 11.6821 44.41 8.5 44.41C5 44.41 5 42.06 5 42.06C5 39.71 6.17 38.53 8.5 38.53C8.61209 38.53 8.73355 38.5323 8.86336 38.5347C10.0884 38.5579 12.0574 38.5951 13.92 36.85C15.08 35.71 16.67 35 18.42 35C21.19 35 23.35 36.64 24.25 39.12ZM15.5 41.5C15.5 43.16 16.84 44.5 18.5 44.5C20.16 44.5 21.5 43.16 21.5 41.5C21.5 39.84 20.16 38.5 18.5 38.5C16.84 38.5 15.5 39.84 15.5 41.5ZM26 49.75C26 50.72 26.78 51.5 27.75 51.5C28.72 51.5 29.5 50.72 29.5 49.75C29.5 48.78 28.72 48 27.75 48C26.78 48 26 48.78 26 49.75Z" fill="black"/>
</svg>
